dist/svgs/devui-icons/op/release-set.svg

<?xml version="1.0" encoding="UTF-8"?>
<svg width="16px" height="16px" viewBox="0 0 16 16" version="1.1" xmlns="http://www.w3.org/2000/svg" xmlns:xlink="http://www.w3.org/1999/xlink">
    <title>操作/版本设置</title>
    <desc>Created with Sketch.</desc>
    <g id="操作/版本设置" stroke="none" stroke-width="1" fill="none" fill-rule="evenodd">
        <path d="M3,1 L13,1 C14.1045695,1 15,1.8954305 15,3 L15,13 C15,14.1045695 14.1045695,15 13,15 L3,15 C1.8954305,15 1,14.1045695 1,13 L1,3 C1,1.8954305 1.8954305,1 3,1 Z M5,3 L3,3 L3,13 L13,13 L13,3 L9,3 L9,7 L7,6 L5,7 L5,3 Z" id="形状" fill="#293040" fill-rule="nonzero"></path>
    </g>
</svg>

<svg xmlns="http://www.w3.org/2000/svg" viewBox="0 0 16 16"><path d="M3 1h10a2 2 0 012 2v10a2 2 0 01-2 2H3a2 2 0 01-2-2V3a2 2 0 012-2zm2 2H3v10h10V3H9v4L7 6 5 7V3z"/></svg>
